X: 20258
T: Joe O'Malley's Favourite
R: reel
M: 4/4
K: Emajor
B,|E2 B,E GBec|=dBAF ADFA|BegB edef|defe dBAc|
B2 eB GEGB|AF=DF dBAc|Be e2 defe|dBAF E3:|
B|GEGB e2 ge|Bedf edBf|eB B2 GB B2|e2 BA GE=DB,|
EB,EB GABA|FA=dA F2 DF|~B3 e defe|dBAF E3:|

